desktop/renderer-app/src/components/MainPageLayoutContainer/icons/disk-active.svg

<?xml version="1.0" encoding="UTF-8"?>
<svg width="32px" height="32px" viewBox="0 0 32 32" version="1.1" xmlns="http://www.w3.org/2000/svg" xmlns:xlink="http://www.w3.org/1999/xlink">
    <title>矩形备份 25</title>
    <g id="Flat-单窗口" stroke="none" stroke-width="1" fill="none" fill-rule="evenodd" stroke-linecap="round" stroke-linejoin="round">
        <g id="菜单栏（单窗口）" transform="translate(-20.000000, -170.000000)" fill="#FFFFFF" stroke="#FFFFFF">
            <g id="编组-49备份-3" transform="translate(20.000000, 170.000000)">
                <path d="M10.5555556,22.6666667 C8.40778153,22.6666667 6.66666667,20.9109206 6.66666667,18.745098 C6.66666667,16.5792755 8.40778153,14.8235294 10.5555556,14.8235294 L10.6225396,14.8240994 L10.6225396,14.8240994 C10.5778048,14.570374 10.5555556,14.307415 10.5555556,14.0392157 C10.5555556,11.4402286 12.6448934,9.33333333 15.2222222,9.33333333 C17.2688811,9.33333333 19.0078148,10.6619333 19.6371379,12.5105092 C19.8465569,12.4844017 20.0605676,12.4705882 20.2777778,12.4705882 C23.069884,12.4705882 25.3333333,14.7530581 25.3333333,17.5686275 C25.3333333,20.2524085 23.2768154,22.4518277 20.6661953,22.6518441 L20.6666667,22.6666667 L10.5555556,22.6666667 Z" id="形状结合"></path>
            </g>
        </g>
    </g>
</svg>

<svg width="32" height="32" xmlns="http://www.w3.org/2000/svg"><path d="M10.556 22.667c-2.148 0-3.89-1.756-3.89-3.922 0-2.166 1.742-3.921 3.89-3.921h.067a4.524 4.524 0 0 1-.067-.785c0-2.599 2.089-4.706 4.666-4.706 2.047 0 3.786 1.329 4.415 3.178.21-.027.424-.04.64-.04 2.793 0 5.056 2.282 5.056 5.098 0 2.683-2.056 4.883-4.667 5.083v.015h-10.11Z" fill="#FFF" stroke="#FFF" fill-rule="evenodd" stroke-linecap="round" stroke-linejoin="round"/></svg>
